public/img/clients/debtmarket.svg

<svg xmlns="http://www.w3.org/2000/svg" focusable="false" role="img" viewBox="0 0 200 100" fill="currentColor">
  <path fill-rule="evenodd" d="M8.5 42.643h7.248c1.674 0 3.635.02 5.577 1.61 1.177.972 2.416 2.768 2.416 5.577 0 2.683-1.198 4.44-2.044 5.306-2.046 2.024-4.895 2.087-7.35 2.087H8.5v-14.58zm2.086 1.715v11.108h4.254c1.836 0 4.108-.06 5.66-2.044.825-1.074 1.133-2.414 1.133-3.654 0-1.96-.762-3.284-1.528-4.026-1.383-1.364-3.013-1.364-4.336-1.384h-5.184.001zm14.232-1.715h13.46v1.797H26.883v4.358h11.09v1.714H26.88v4.913h11.916v1.798h-13.98v-14.58h.002zm16 0h9.354c1.57 0 3.573.062 4.75 1.548.62.808.722 1.653.722 2.252 0 1.425-.66 2.25-1.322 2.664-.144.084-.68.332-.722.332.64.205 2.768.927 2.768 3.716 0 1.138-.434 2.23-1.3 2.953-1.323 1.116-3.325 1.116-4.896 1.116h-9.354V42.643zm2.065 1.694v4.48h7.62c.64 0 1.384 0 1.962-.33.722-.392 1.032-1.198 1.032-1.9 0-.866-.433-1.446-.95-1.795-.722-.455-1.632-.455-2.397-.455h-7.267zm0 6.153v5.04h7.91c.866 0 1.857-.042 2.643-.704.764-.66.783-1.526.783-1.836 0-1.22-.703-1.754-.868-1.9-.743-.578-1.713-.6-2.56-.6h-7.91.002zm13.887-7.847h13.98v1.735h-5.968v12.845h-2.065V44.378H56.77v-1.735zm21.624 0h6.917l3.678 9.52 3.676-9.52h6.897v14.58h-5.163V47.89l-3.448 9.333h-4.027l-3.407-9.293v9.293h-5.122v-14.58h-.001zm28.352 0h5.95l6.317 14.58h-5.68l-.783-2.375h-5.576l-.784 2.375h-5.72l6.276-14.58zm2.995 4.048l-1.67 4.935h3.386l-1.715-4.934-.001-.001zm10.132-4.048h10.718c1.28.02 2.85.04 4.07.93 1.052.805 1.713 2.23 1.713 3.695 0 1.033-.33 2.045-.93 2.767-.826.99-1.816 1.2-2.437 1.365l3.656 5.823h-5.783l-2.994-5.306h-2.79v5.306h-5.223v-14.58zm5.224 5.968h3.923c.806 0 2.127-.02 2.127-1.32 0-.332-.103-.682-.37-.93-.415-.37-.95-.413-1.343-.413h-4.337v2.664-.001zm17.728-5.968v5.452l4.894-5.452h6.317l-5.72 5.516 6.38 9.063h-6.256l-3.84-5.515-1.797 1.735v3.78h-4.832v-14.58h4.855l-.001.001zm27.77 0v3.283h-10.14V48.3h9.375v3.306h-9.396v2.313h10.368v3.303h-15.57v-14.58h15.363v.001zm16.268-.019v3.282H181.7v11.317h-5.266V45.906h-5.183v-3.282h15.613-.001zm2.072.019a1.558 1.558 0 011.453.97c.076.19.112.387.112.596a1.484 1.484 0 01-.459 1.104c-.147.147-.318.26-.51.337a1.5 1.5 0 01-1.195-.002 1.55 1.55 0 01-.51-.35 1.516 1.516 0 01-.446-1.09c0-.142.017-.28.056-.416.038-.134.095-.267.17-.397.14-.237.327-.422.558-.555.234-.13.49-.197.77-.197h.001zm.004.26c-.178 0-.344.03-.495.09a1.26 1.26 0 00-.414.28c-.125.125-.22.27-.29.43a1.295 1.295 0 00.7 1.707 1.247 1.247 0 00.987.004 1.312 1.312 0 00.715-.695 1.22 1.22 0 00.102-.49c0-.185-.03-.358-.093-.514a1.236 1.236 0 00-.277-.422 1.295 1.295 0 00-.425-.294 1.298 1.298 0 00-.51-.097v.001zm-.65.406h.68c.247 0 .43.043.555.125.123.082.184.208.184.374 0 .114-.034.21-.1.295a.526.526 0 01-.28.165l.39.774h-.47l-.332-.71h-.207v.71h-.42V43.309zm.42.267v.504h.208c.123 0 .214-.02.27-.06.058-.04.088-.1.088-.184 0-.09-.033-.157-.092-.197a.518.518 0 00-.286-.063h-.188zM74 35h.84v30.197H74V35z" clip-rule="evenodd"/>
</svg>

<svg width="200" height="100" viewBox="0 0 200 100" fill="none" xmlns="http://www.w3.org/2000/svg">
<path fill-rule="evenodd" clip-rule="evenodd" d="M8.5 42.643H15.748C17.422 42.643 19.383 42.663 21.325 44.253C22.502 45.225 23.741 47.021 23.741 49.83C23.741 52.513 22.543 54.27 21.697 55.136C19.651 57.16 16.802 57.223 14.347 57.223H8.5V42.643ZM10.586 44.358V55.466H14.84C16.676 55.466 18.948 55.406 20.5 53.422C21.325 52.348 21.633 51.008 21.633 49.768C21.633 47.808 20.871 46.484 20.105 45.742C18.722 44.378 17.092 44.378 15.769 44.358H10.585H10.586ZM24.818 42.643H38.278V44.44H26.883V48.798H37.973V50.512H26.88V55.425H38.796V57.223H24.816V42.643H24.818ZM40.818 42.643H50.172C51.742 42.643 53.745 42.705 54.922 44.191C55.542 44.999 55.644 45.844 55.644 46.443C55.644 47.868 54.984 48.693 54.322 49.107C54.178 49.191 53.642 49.439 53.6 49.439C54.24 49.644 56.368 50.366 56.368 53.155C56.368 54.293 55.934 55.385 55.068 56.108C53.745 57.224 51.743 57.224 50.172 57.224H40.818V42.644V42.643ZM42.883 44.337V48.817H50.503C51.143 48.817 51.887 48.817 52.465 48.487C53.187 48.095 53.497 47.289 53.497 46.587C53.497 45.721 53.064 45.141 52.547 44.792C51.825 44.337 50.915 44.337 50.15 44.337H42.883ZM42.883 50.49V55.53H50.793C51.659 55.53 52.65 55.488 53.436 54.826C54.2 54.166 54.219 53.3 54.219 52.99C54.219 51.77 53.516 51.236 53.351 51.09C52.608 50.512 51.638 50.49 50.791 50.49H42.881H42.883ZM56.77 42.643H70.75V44.378H64.782V57.223H62.717V44.378H56.77V42.643ZM78.394 42.643H85.311L88.989 52.163L92.665 42.643H99.562V57.223H94.399V47.89L90.951 57.223H86.924L83.517 47.93V57.223H78.395V42.643H78.394ZM106.746 42.643H112.696L119.013 57.223H113.333L112.55 54.848H106.974L106.19 57.223H100.47L106.746 42.643ZM109.741 46.691L108.071 51.626H111.457L109.742 46.692L109.741 46.691ZM119.873 42.643H130.591C131.871 42.663 133.441 42.683 134.661 43.573C135.713 44.378 136.374 45.803 136.374 47.268C136.374 48.301 136.044 49.313 135.444 50.035C134.618 51.025 133.628 51.235 133.007 51.4L136.663 57.223H130.88L127.886 51.917H125.096V57.223H119.873V42.643ZM125.097 48.611H129.02C129.826 48.611 131.147 48.591 131.147 47.291C131.147 46.959 131.044 46.609 130.777 46.361C130.362 45.991 129.827 45.948 129.434 45.948H125.097V48.612V48.611ZM142.825 42.643V48.095L147.719 42.643H154.036L148.316 48.159L154.696 57.222H148.44L144.6 51.707L142.803 53.442V57.222H137.971V42.642H142.826L142.825 42.643ZM170.595 42.643V45.926H160.455V48.3H169.83V51.606H160.434V53.919H170.802V57.222H155.232V42.642H170.595V42.643ZM186.863 42.624V45.906H181.7V57.223H176.434V45.906H171.251V42.624H186.864H186.863ZM188.935 42.643C189.151 42.643 189.355 42.683 189.545 42.763C189.739 42.846 189.909 42.96 190.058 43.113C190.201 43.258 190.311 43.426 190.388 43.613C190.464 43.803 190.5 44 190.5 44.209C190.5 44.421 190.462 44.623 190.384 44.813C190.304 45.003 190.19 45.17 190.041 45.313C189.894 45.46 189.723 45.573 189.531 45.65C189.339 45.73 189.138 45.772 188.936 45.772C188.726 45.772 188.526 45.73 188.336 45.648C188.144 45.568 187.976 45.45 187.826 45.298C187.68 45.151 187.568 44.983 187.493 44.798C187.417 44.608 187.38 44.413 187.38 44.208C187.38 44.066 187.397 43.928 187.436 43.792C187.474 43.658 187.531 43.525 187.606 43.395C187.746 43.158 187.933 42.973 188.164 42.84C188.398 42.71 188.654 42.643 188.934 42.643H188.935ZM188.939 42.903C188.761 42.903 188.595 42.933 188.444 42.993C188.294 43.055 188.154 43.148 188.03 43.273C187.905 43.398 187.81 43.543 187.74 43.703C187.67 43.865 187.636 44.033 187.636 44.205C187.636 44.38 187.669 44.547 187.733 44.702C187.797 44.859 187.889 44.997 188.01 45.118C188.137 45.246 188.28 45.341 188.44 45.41C188.597 45.48 188.764 45.514 188.935 45.514C189.105 45.514 189.269 45.481 189.427 45.414C189.583 45.348 189.727 45.254 189.86 45.129C189.98 45.009 190.075 44.874 190.142 44.719C190.21 44.562 190.244 44.399 190.244 44.229C190.244 44.044 190.214 43.871 190.151 43.715C190.091 43.56 189.998 43.419 189.874 43.293C189.748 43.163 189.606 43.066 189.449 42.999C189.289 42.932 189.121 42.902 188.939 42.902V42.903ZM188.289 43.309H188.969C189.216 43.309 189.399 43.352 189.524 43.434C189.647 43.516 189.708 43.642 189.708 43.808C189.708 43.922 189.674 44.018 189.608 44.103C189.54 44.183 189.446 44.238 189.328 44.268L189.718 45.042H189.248L188.916 44.332H188.709V45.042H188.289V43.31V43.309ZM188.709 43.576V44.08H188.917C189.04 44.08 189.131 44.06 189.187 44.02C189.245 43.98 189.275 43.92 189.275 43.836C189.275 43.746 189.242 43.679 189.183 43.639C189.121 43.597 189.025 43.576 188.897 43.576H188.71H188.709ZM74 35H74.84V65.197H74V35Z" fill="black"/>
</svg>
